_uploads/logo-january-third.svg

<svg width="101" height="46" viewBox="0 0 101 46" fill="none" xmlns="http://www.w3.org/2000/svg">
<g clip-path="url(#clip0)">
<path fill-rule="evenodd" clip-rule="evenodd" d="M5.75729 45.7183H7.97167V28.4257H5.75729V45.7183ZM0.219055 27.2152H13.5098V25.0536H0.219055V27.2152ZM28.4174 36.6684V45.7183H26.2893V36.6684C26.2893 36.6684 26.203 32.2298 21.8606 32.2298C21.8606 32.2298 19.9339 32.1433 18.611 33.7862V31.4516C19.2724 30.8752 20.279 30.3563 21.8606 30.2987C21.8606 30.2987 28.4174 29.8952 28.4174 36.6684ZM17.4031 37.6483V45.7183H15.3038V25.0536H17.4031V37.6483Z" fill="black"/>
<mask id="mask0" mask-type="alpha" maskUnits="userSpaceOnUse" x="36" y="25" width="24" height="21">
<path d="M36.4918 25.0536H59.7739V46H36.4918V25.0536Z" fill="black"/>
</mask>
<g mask="url(#mask0)">
<path fill-rule="evenodd" clip-rule="evenodd" d="M44.429 30.3276V32.518C44.1413 32.4604 43.8251 32.4316 43.5087 32.4316C41.8407 32.4316 40.6328 33.008 39.799 34.0168V31.5669C40.8055 30.6158 42.1283 30.2699 43.5087 30.2699C43.8251 30.2699 44.1413 30.2987 44.429 30.3276ZM36.4918 45.7183H38.6198V30.587H36.4918V45.7183ZM57.6458 45.7183H59.7739V25.0536H57.6458V45.7183ZM56.4667 44.6232C55.2877 45.6607 53.6197 46.0066 52.1818 46.0066C47.9256 46.0066 44.9635 42.7497 44.9348 38.1382C44.9635 33.5268 47.9544 30.2699 52.1818 30.2699C53.6197 30.2699 55.2877 30.6158 56.4667 31.6533V34.1608C55.5177 32.8927 54.0223 32.2009 52.1818 32.2009C48.8172 32.2009 47.0629 34.6797 47.0342 38.1382C47.0629 41.5969 48.8172 44.0756 52.1818 44.0756C54.0223 44.0756 55.5177 43.3838 56.4667 42.1445V44.6232Z" fill="black"/>
</g>
<path fill-rule="evenodd" clip-rule="evenodd" d="M31.1372 45.7183H33.2654V30.5581H31.1372V45.7183ZM33.4777 26.9235C33.4777 27.6799 32.8659 28.293 32.1112 28.293C31.3565 28.293 30.7447 27.6799 30.7447 26.9235C30.7447 26.1672 31.3565 25.554 32.1112 25.554C32.8659 25.554 33.4777 26.1672 33.4777 26.9235ZM11.25 13.7479H13.4643V0H11.25V13.7479ZM11.25 14.9297H13.4643C13.4643 22.4233 6.85004 22.0486 6.85004 22.0486C-0.454366 22.0486 0.00576044 14.9297 0.00576044 14.9297H2.13378C2.13378 20.4923 6.85004 20.0311 6.85004 20.0311C11.3938 20.0311 11.25 14.9297 11.25 14.9297ZM28.7633 12.3068V21.7604H26.6352V11.1252C26.6352 9.56877 24.996 8.32939 22.5804 8.32939C20.136 8.32939 18.468 9.85703 18.468 11.961V12.1628H16.34V11.961C16.34 9.16525 18.5543 6.36965 22.5804 6.36965C26.6927 6.36965 28.7633 8.41595 28.7633 12.3068ZM25.4561 20.7228C24.6797 21.4146 23.3856 22.0486 21.1712 22.0486C18.123 22.0486 15.7648 20.3769 15.7648 17.8406C15.7648 12.278 22.6091 13.4309 25.4561 12.451V14.3532C22.8105 15.1026 17.8066 14.4973 17.8928 17.7254C17.9216 19.2241 18.9857 20.0311 21.1712 20.0311C23.1555 20.0311 24.5647 19.2241 25.4561 18.1865V20.7228ZM44.4934 12.7104V21.7604H42.3653V12.7104C42.3653 12.7104 42.279 8.27176 37.9366 8.27176C37.9366 8.27176 35.9811 8.18532 34.687 9.82821V7.46484C35.3196 6.8595 36.355 6.34072 37.9366 6.31191C37.9366 6.31191 44.4934 5.9372 44.4934 12.7104ZM33.4791 14.0362V21.7604H31.3511V6.60017H33.4791V14.0362ZM57.7042 21.7604H59.8323V6.60017H57.7042V21.7604ZM56.5251 20.8958C55.8637 21.501 54.8572 22.0198 53.2754 22.0486C53.2754 22.0486 46.7187 22.4521 46.7187 15.679V6.60017H48.8179V15.679C48.8179 15.679 48.933 20.0888 53.2754 20.0888C53.2754 20.0888 55.2022 20.204 56.5251 18.5323V20.8958ZM74.9124 12.3068V21.7604H72.7843V11.1252C72.7843 9.56877 71.1451 8.32939 68.7295 8.32939C66.2851 8.32939 64.6171 9.85703 64.6171 11.961V12.1628H62.4891V11.961C62.4891 9.16525 64.7034 6.36965 68.7295 6.36965C72.842 6.36965 74.9124 8.41595 74.9124 12.3068ZM71.6053 20.7228C70.8289 21.4146 69.5348 22.0486 67.3205 22.0486C64.2721 22.0486 61.9139 20.3769 61.9139 17.8406C61.9139 12.278 68.7583 13.4309 71.6053 12.451V14.3532C68.9596 15.1026 63.9557 14.4973 64.042 17.7254C64.0707 19.2241 65.1348 20.0311 67.3205 20.0311C69.3046 20.0311 70.7139 19.2241 71.6053 18.1865V20.7228Z" fill="black"/>
<mask id="mask1" mask-type="alpha" maskUnits="userSpaceOnUse" x="76" y="6" width="25" height="27">
<path d="M76.6257 6.31193H101V32.689H76.6257V6.31193Z" fill="black"/>
</mask>
<g mask="url(#mask1)">
<path fill-rule="evenodd" clip-rule="evenodd" d="M84.2348 6.36967V8.56005C83.9474 8.50242 83.6309 8.47361 83.3145 8.47361C81.6467 8.47361 80.4388 9.05002 79.6048 10.0589V7.60894C80.6114 6.65782 81.9341 6.31193 83.3145 6.31193C83.6309 6.31193 83.9474 6.34075 84.2348 6.36967ZM76.6257 21.7604H78.7538V6.62901H76.6257V21.7604ZM93.3505 18.4459H95.7086L101 6.60019H98.6706L93.3505 18.4459ZM93.0629 18.4459H90.7048L85.4133 6.60019H87.7427L93.0629 18.4459Z" fill="black"/>
<path fill-rule="evenodd" clip-rule="evenodd" d="M87.0099 32.689H89.3681L101 6.60013H98.6706L87.0099 32.689Z" fill="black"/>
</g>
</g>
<defs>
<clipPath id="clip0">
<rect width="101" height="46" fill="white"/>
</clipPath>
</defs>
</svg>

<svg width="101" height="46" fill="none" xmlns="http://www.w3.org/2000/svg"><g clip-path="url(#clip0)"><path fill-rule="evenodd" clip-rule="evenodd" d="M5.757 45.718h2.215V28.426H5.757v17.292zM.22 27.215h13.29v-2.161H.22v2.161zm28.198 9.453v9.05H26.29v-9.05s-.086-4.438-4.428-4.438c0 0-1.927-.087-3.25 1.556v-2.334c.661-.577 1.668-1.096 3.25-1.153 0 0 6.556-.404 6.556 6.37zm-11.014.98v8.07h-2.1V25.054h2.1v12.594z" fill="#000"/><mask id="a" maskUnits="userSpaceOnUse" x="36" y="25" width="24" height="21"><path d="M36.492 25.054h23.282V46H36.492V25.054z" fill="#000"/></mask><g mask="url(#a)"><path fill-rule="evenodd" clip-rule="evenodd" d="M44.429 30.328v2.19a4.754 4.754 0 0 0-.92-.086c-1.668 0-2.876.576-3.71 1.585v-2.45c1.007-.951 2.33-1.297 3.71-1.297.316 0 .632.029.92.058zm-7.937 15.39h2.128V30.587h-2.128v15.131zm21.154 0h2.128V25.054h-2.128v20.664zm-1.18-1.095c-1.178 1.038-2.846 1.384-4.284 1.384-4.256 0-7.218-3.257-7.247-7.869.029-4.611 3.02-7.868 7.247-7.868 1.438 0 3.106.346 4.285 1.383v2.508c-.95-1.268-2.445-1.96-4.285-1.96-3.365 0-5.12 2.479-5.148 5.937.029 3.459 1.783 5.938 5.148 5.938 1.84 0 3.336-.692 4.285-1.931v2.478z" fill="#000"/></g><path fill-rule="evenodd" clip-rule="evenodd" d="M31.137 45.718h2.128v-15.16h-2.128v15.16zm2.34-18.795c0 .757-.611 1.37-1.366 1.37a1.368 1.368 0 0 1-1.366-1.37c0-.756.611-1.369 1.366-1.369.755 0 1.367.613 1.367 1.37zM11.25 13.748h2.214V0H11.25v13.748zm0 1.182h2.214c0 7.493-6.614 7.119-6.614 7.119-7.304 0-6.844-7.12-6.844-7.12h2.128c0 5.563 4.716 5.102 4.716 5.102 4.544 0 4.4-5.101 4.4-5.101zm17.513-2.623v9.453h-2.128V11.125c0-1.556-1.639-2.796-4.055-2.796-2.444 0-4.112 1.528-4.112 3.632v.202H16.34v-.202c0-2.796 2.214-5.591 6.24-5.591 4.113 0 6.183 2.046 6.183 5.937zm-3.307 8.416c-.776.692-2.07 1.326-4.285 1.326-3.048 0-5.406-1.672-5.406-4.208 0-5.563 6.844-4.41 9.691-5.39v1.902c-2.645.75-7.65.144-7.563 3.372.029 1.5 1.093 2.306 3.278 2.306 1.985 0 3.394-.807 4.285-1.845v2.537zm19.037-8.013v9.05h-2.128v-9.05s-.086-4.438-4.428-4.438c0 0-1.956-.087-3.25 1.556V7.465c.633-.606 1.668-1.124 3.25-1.153 0 0 6.556-.375 6.556 6.398zM33.48 14.036v7.724h-2.128V6.6h2.128v7.436zm24.225 7.724h2.128V6.6h-2.128v15.16zm-1.179-.864c-.661.605-1.668 1.124-3.25 1.153 0 0-6.556.403-6.556-6.37V6.6h2.099v9.079s.115 4.41 4.457 4.41c0 0 1.927.115 3.25-1.557v2.364zm18.387-8.59v9.454h-2.128V11.125c0-1.556-1.639-2.796-4.055-2.796-2.444 0-4.112 1.528-4.112 3.632v.202H62.49v-.202c0-2.796 2.214-5.591 6.24-5.591 4.113 0 6.183 2.046 6.183 5.937zm-3.307 8.417c-.776.692-2.07 1.326-4.285 1.326-3.048 0-5.406-1.672-5.406-4.208 0-5.563 6.844-4.41 9.691-5.39v1.902c-2.645.75-7.65.144-7.563 3.372.029 1.5 1.093 2.306 3.278 2.306 1.985 0 3.394-.807 4.285-1.845v2.537z" fill="#000"/><mask id="b" maskUnits="userSpaceOnUse" x="76" y="6" width="25" height="27"><path d="M76.626 6.312H101v26.377H76.626V6.312z" fill="#000"/></mask><g mask="url(#b)" fill-rule="evenodd" clip-rule="evenodd" fill="#000"><path d="M84.235 6.37v2.19a4.75 4.75 0 0 0-.92-.086c-1.668 0-2.876.576-3.71 1.585v-2.45c1.006-.951 2.33-1.297 3.71-1.297.316 0 .632.029.92.058zm-7.61 15.39h2.129V6.63h-2.128V21.76zm16.725-3.314h2.359L101 6.6h-2.33l-5.32 11.846zm-.287 0h-2.358L85.413 6.6h2.33l5.32 11.846z"/><path d="M87.01 32.689h2.358L101 6.6h-2.33L87.01 32.69z"/></g></g><defs><clipPath id="clip0"><path fill="#fff" d="M0 0H101V46H0z"/></clipPath></defs></svg>
